src/components/NewsletterForm/images/check-dark.svg

<svg xmlns="http://www.w3.org/2000/svg" width="41" height="38" fill="none" viewBox="0 0 41 38"><path fill="#8E859A" d="M20.2257 0.988281C9.06233 0.988281 0.0117188 9.21611 0.0117188 19.3646C0.0117188 29.5132 9.06233 37.741 20.2257 37.741C31.3891 37.741 40.4397 29.5132 40.4397 19.3646C40.4397 9.21611 31.3891 0.988281 20.2257 0.988281ZM27.806 11.5404L31.3592 14.7706L17.699 27.189L9.09229 19.3647L12.6455 16.1344L17.699 20.7285L27.806 11.5404Z"/></svg>

<svg fill="none" viewBox="0 0 41 38"><path fill="#8E859A" d="M20.226.988C9.062.988.012 9.216.012 19.365c0 10.148 9.05 18.376 20.214 18.376 11.163 0 20.214-8.228 20.214-18.376C40.44 9.216 31.39.988 20.226.988zm7.58 10.552l3.553 3.23L17.7 27.19l-8.607-7.824 3.553-3.23 5.054 4.593 10.107-9.188z"/></svg>
